icons/file/icon_format-unknown_m_red.svg

<svg width="24" height="24" fill="none" xmlns="http://www.w3.org/2000/svg"><path fill-rule="evenodd" clip-rule="evenodd" d="M20 19V4c0-1.103-.897-2-2-2H8.707L4 6.707V19H3V6.293L8.293 1H18c1.654 0 3 1.346 3 3v15h-1zm-2 4H6c-1.654 0-3-1.346-3-3v-1h1v1c0 1.103.897 2 2 2h12c1.103 0 2-.897 2-2v-1h1v1c0 1.654-1.346 3-3 3z" fill="#D5352B"/><path d="M11.83 15.155c-.554 0-.95.396-.95.957 0 .554.396.95.95.95.554 0 .943-.396.943-.95 0-.56-.389-.957-.943-.957zM11.98 7C10.059 7 9.075 8.176 9 9.652h1.169c.075-.978.731-1.586 1.764-1.586 1.019 0 1.675.622 1.675 1.47 0 .731-.308 1.162-1.101 1.647-.937.561-1.374 1.176-1.367 2.078v.629h1.196v-.444c0-.718.246-1.101 1.114-1.613.875-.526 1.429-1.285 1.429-2.358C14.879 8.067 13.703 7 11.98 7z" fill="#D5352B"/></svg>

<svg width="24" height="24" viewBox="0 0 24 24" fill="none" xmlns="http://www.w3.org/2000/svg">
<path fill-rule="evenodd" clip-rule="evenodd" d="M20 19V4C20 2.897 19.103 2 18 2H8.707L4 6.707V19H3V6.293L8.293 1H18C19.654 1 21 2.346 21 4V19H20ZM18 23H6C4.346 23 3 21.654 3 20V19H4V20C4 21.103 4.897 22 6 22H18C19.103 22 20 21.103 20 20V19H21V20C21 21.654 19.654 23 18 23Z" fill="#EF3124"/>
<path d="M11.83 15.155C11.276 15.155 10.88 15.551 10.88 16.112C10.88 16.666 11.276 17.062 11.83 17.062C12.384 17.062 12.773 16.666 12.773 16.112C12.773 15.552 12.384 15.155 11.83 15.155ZM11.98 7C10.059 7 9.075 8.176 9 9.652H10.169C10.244 8.674 10.9 8.066 11.933 8.066C12.952 8.066 13.608 8.688 13.608 9.536C13.608 10.267 13.3 10.698 12.507 11.183C11.57 11.744 11.133 12.359 11.14 13.261V13.89H12.336V13.446C12.336 12.728 12.582 12.345 13.45 11.833C14.325 11.307 14.879 10.548 14.879 9.475C14.879 8.067 13.703 7 11.98 7Z" fill="#EF3124"/>
</svg>
